svg/black/dot.svg

<?xml version="1.0" encoding="UTF-8"?>
<svg width="32px" height="32px" viewBox="0 0 32 32" version="1.1" xmlns="http://www.w3.org/2000/svg" xmlns:xlink="http://www.w3.org/1999/xlink">
    <title>svg/black/dot</title>
    <g id="black/dot" stroke="none" stroke-width="1" fill="none" fill-rule="evenodd">
        <g id="Group" fill="#000000" fill-rule="nonzero">
            <path d="M16,-3.3553407e-15 C24.836556,-3.3553407e-15 32,7.163444 32,16 C32,24.836556 24.836556,32 16,32 C7.163444,32 0,24.836556 0,16 C0,7.163444 7.163444,-3.3553407e-15 16,-3.3553407e-15 Z M15.4168317,23.0029703 C15.2920792,23.6089109 15.6663366,24.2148515 16.290099,24.339604 C16.8960396,24.4643564 17.5019802,24.090099 17.6267327,23.4663366 C17.7514851,22.8425743 17.3772277,22.2544554 16.7534653,22.129703 C16.1475248,22.0049505 15.5415842,22.3792079 15.4168317,23.0029703 Z M16.2722772,6.62475248 C12.5653465,6.62475248 9.53564356,9.63663366 9.53564356,13.3613861 C9.53564356,14.109901 9.66039604,14.8405941 9.89207921,15.5534653 C10.0524752,16.0346535 10.5871287,16.3019802 11.0861386,16.1415842 C11.5673267,15.9811881 11.8346535,15.4465347 11.6742574,14.9475248 C11.4782178,14.3950495 11.3891089,13.8069307 11.4069307,13.2188119 C11.4782178,10.7059406 13.509901,8.63861386 16.0227723,8.51386139 C18.8207921,8.37128713 21.1376238,10.5990099 21.1376238,13.3613861 C21.1376238,15.9455446 19.1059406,18.0663366 16.5574257,18.2089109 C16.5574257,18.2089109 15.6128713,18.2623762 15.149505,18.3336634 C14.9178218,18.3693069 14.739604,18.4049505 14.6148515,18.4227723 C14.5613861,18.4405941 14.5079208,18.3871287 14.5257426,18.3336634 L14.6861386,17.549505 L15.5594059,13.5217822 C15.6663366,13.0227723 15.3455446,12.5237624 14.8465347,12.4168317 C14.3475248,12.309901 13.8485149,12.6306931 13.7415842,13.129703 C13.7415842,13.129703 11.6386139,22.9316832 11.6207921,23.0386139 C11.5138614,23.5376238 11.8346535,24.0366337 12.3336634,24.1435644 C12.8326733,24.250495 13.3316832,23.929703 13.4386139,23.4306931 C13.4564356,23.3237624 13.7415842,22.0227723 13.7415842,22.0227723 C13.9554455,21.0247525 14.7752475,20.2940594 15.7376238,20.1693069 C15.9514851,20.1336634 16.7891089,20.080198 16.7891089,20.080198 C20.2643564,19.8128713 23.0089109,16.9079208 23.0089109,13.3613861 C23.0089109,9.63663366 19.9792079,6.62475248 16.2722772,6.62475248 Z" id="Combined-Shape"></path>
        </g>
    </g>
</svg>

<svg width="32" height="32" viewBox="0 0 32 32" xmlns="http://www.w3.org/2000/svg"><path d="M16 0c8.837 0 16 7.163 16 16s-7.163 16-16 16S0 24.837 0 16 7.163 0 16 0zm-.583 23.003c-.125.606.25 1.212.873 1.337a1.122 1.122 0 001.337-.874c.124-.623-.25-1.212-.874-1.336a1.122 1.122 0 00-1.336.873zm.855-16.378c-3.707 0-6.736 3.012-6.736 6.736 0 .749.124 1.48.356 2.192a.95.95 0 001.194.589.95.95 0 00.588-1.194 4.745 4.745 0 01-.267-1.73c.071-2.512 2.103-4.58 4.616-4.704a4.86 4.86 0 015.115 4.847 4.862 4.862 0 01-4.58 4.848s-.945.053-1.408.125c-.232.035-.41.071-.535.089-.054.018-.107-.036-.09-.09l.161-.783.873-4.028a.934.934 0 00-.712-1.105.934.934 0 00-1.105.713s-2.103 9.802-2.121 9.909a.934.934 0 00.713 1.105.934.934 0 001.105-.713c.017-.107.303-1.408.303-1.408a2.367 2.367 0 011.996-1.854c.213-.035 1.051-.089 1.051-.089a6.744 6.744 0 006.22-6.719c0-3.724-3.03-6.736-6.737-6.736z" fill="#000" fill-rule="nonzero"/></svg>
